X: 16
T: Jig Of Slurs, The
C: G.S. MacLennan
Z: Sean Perry
S: https://thesession.org/tunes/35#setting52369
R: jig
M: 6/8
L: 1/8
K: Dmaj
|:Add dcd|Bdd Add|Bdd Add|Bee edB|
Add dcd|Bdd Add|Bcd cde|fec d2B:|
|:A2f fef|aff fed|B2e ede|fgf edB|
A2f fef|aff fed|Bcd cde|fdc d2B:|
K:Gmaj
|:G2g gfg|agf gdB|G2g gfg|agf g2B|
G2g gfg|agf g2d|e2e efg|fed edB:|
|:GBB Bdd|dee edB|GBB Bdd|dee efg|
GBB Bdd|dee edB|e2e efg|fed edB:|

